packages/foundations/assets/icons/functional/images/environment/globe_12.svg

<svg width="12" height="12" viewBox="0 0 12 12" fill="none" xmlns="http://www.w3.org/2000/svg">
<g clip-path="url(#clip0_231_209)">
<path fill-rule="evenodd" clip-rule="evenodd" d="M6.00001 1.2C7.27609 1.2 8.49367 1.7151 9.39511 2.6049C10.2849 3.50634 10.8 4.72392 10.8 6C10.8 8.64588 8.64589 10.8 6.00001 10.8C3.35413 10.8 1.20001 8.64588 1.20001 6C1.20001 3.35412 3.35413 1.2 6.00001 1.2ZM3.76081 6.59706H2.44645C2.68129 8.05566 3.79885 9.2103 5.23903 9.52392C4.69459 8.94468 4.03549 7.70064 3.76081 6.59706ZM7.28179 6.59706H5.00419C5.54593 8.48508 6.39709 9.5001 6.84295 9.5001C7.12915 9.5001 7.35847 8.77056 7.35607 7.52256C7.35607 7.24122 7.33483 6.92994 7.28179 6.59706ZM9.55423 6.59706H8.48767C8.54125 6.93504 8.55241 7.25112 8.55781 7.54494C8.55781 7.95576 8.51731 8.32572 8.44681 8.65758C8.94361 8.14926 9.42901 7.46988 9.55423 6.59706ZM3.54145 3.36588C2.98249 3.8535 2.56849 4.65522 2.44675 5.40294H3.52363C3.46099 5.0136 3.43621 4.67406 3.43369 4.3854C3.43369 3.92814 3.49081 3.59772 3.54145 3.36588ZM6.84295 2.49954C7.31599 2.99616 8.05177 4.23348 8.25403 5.40294H9.55327C9.31921 3.96984 8.23579 2.83002 6.84295 2.49954ZM5.13193 2.4999C4.87723 2.5593 4.66327 3.22944 4.66567 4.47744C4.66567 4.75878 4.68691 5.07 4.73989 5.40294H7.01755C6.46195 3.51492 5.58853 2.39328 5.13193 2.4999Z" fill="#1A1C1F"/>
</g>
<defs>
<clipPath id="clip0_231_209">
<rect width="12" height="12" fill="white"/>
</clipPath>
</defs>
</svg>

<svg xmlns="http://www.w3.org/2000/svg" width="12" height="12" fill="none"><g clip-path="url(#a)"><path fill="#1A1C1F" fill-rule="evenodd" d="M6 1.2c1.276 0 2.494.515 3.395 1.405A4.84 4.84 0 0 1 10.8 6c0 2.646-2.154 4.8-4.8 4.8A4.807 4.807 0 0 1 1.2 6c0-2.646 2.154-4.8 4.8-4.8M3.76 6.597H2.447A3.59 3.59 0 0 0 5.24 9.524c-.544-.58-1.204-1.823-1.478-2.927m3.522 0H5.004C5.546 8.485 6.397 9.5 6.843 9.5c.286 0 .515-.73.513-1.977 0-.282-.021-.593-.074-.926m2.272 0H8.488c.053.338.064.654.07.948 0 .41-.04.78-.111 1.113.497-.509.982-1.188 1.107-2.06M3.541 3.366c-.559.487-.973 1.29-1.094 2.037h1.077a7 7 0 0 1-.09-1.018c0-.457.057-.787.107-1.02M6.843 2.5c.473.496 1.209 1.733 1.411 2.903h1.3A3.59 3.59 0 0 0 6.842 2.5m-1.711 0c-.255.06-.469.73-.466 1.977 0 .282.02.593.074.926h2.278c-.556-1.888-1.43-3.01-1.886-2.903" clip-rule="evenodd"/></g><defs><clipPath id="a"><path fill="#fff" d="M0 0h12v12H0z"/></clipPath></defs></svg>
